web_console_v2/client/src/assets/icons/workflow-warning.svg

<svg width="16" height="16" viewBox="0 0 16 16" fill="none" xmlns="http://www.w3.org/2000/svg">
<path d="M8 16C12.4183 16 16 12.4183 16 8C16 3.58172 12.4183 0 8 0C3.58172 0 0 3.58172 0 8C0 12.4183 3.58172 16 8 16Z" fill="#FFF7E8"/>
<path fill-rule="evenodd" clip-rule="evenodd" d="M8.57852 10.1555C8.82398 10.1555 9.02296 10.3545 9.02296 10.5999V11.7555C9.02296 12.001 8.82398 12.2 8.57852 12.2H7.42296C7.1775 12.2 6.97852 12.001 6.97852 11.7555V10.5999C6.97852 10.3545 7.1775 10.1555 7.42296 10.1555H8.57852ZM8.57852 3.62793C8.82398 3.62793 9.02296 3.82691 9.02296 4.07237V8.7481C9.02296 8.99356 8.82398 9.19254 8.57852 9.19254H7.42296C7.1775 9.19254 6.97852 8.99356 6.97852 8.7481V4.07237C6.97852 3.82691 7.1775 3.62793 7.42296 3.62793H8.57852Z" fill="#FF7D00"/>
</svg>

<svg xmlns="http://www.w3.org/2000/svg" width="16" height="16" fill="none"><path fill="#FFF7E8" d="M8 16A8 8 0 1 0 8 0a8 8 0 0 0 0 16Z"/><path fill="#FF7D00" d="M8.579 10.155c.245 0 .444.2.444.445v1.155a.444.444 0 0 1-.444.445H7.423a.444.444 0 0 1-.444-.444V10.6c0-.245.199-.444.444-.444h1.156Zm0-6.527c.245 0 .444.199.444.444v4.676a.444.444 0 0 1-.444.445H7.423a.444.444 0 0 1-.444-.445V4.072c0-.245.199-.444.444-.444h1.156Z"/></svg>
